X:17
%%pagewidth 8in
%%vocalfont Baskerville10Pro 15
T: John Dory
M: 6/8
L: 1/8
K: C
V:1 clef-treble
V:2 clef-bass octave=-1
V:1
[EG]| A2G A2B & F3 F3| [Ec]2G G2E/E/ & x3 x2C| F2E [B,D]2G & C3 x3|
w: As it fell on a ho-li-day, And up-on a ho ly
V:2
C|F3 D3|C3-C2C|D3 G2G,|
V:1
C3 C2[DG]|[Ec]2c [Ad]2d| [^Ge]2e e2[Ae]|d2c c2B & [FA]3 [DG]3|
w: tide, a John Do-ry bought him~an am-bling nag To Pa-ris for to
V:2
C3 C2B,|A,3 F3| E3-E2C| D3 G3|
V:1
[EGc]3 [EGc]2 [CG]| F2E D2G & C3 B,3| C3 [CGc]2 [CE]/[CE]/| F2E D2G & C3 B,3| C3-C2||
w: ride, a, To Pa-ris for to ride, a, And up-on a ho-ly tide.*
V:2
C3 C2E| D3 G3|A3 E2C|D3 G,3|C3-C2||

